icon-themes/breeze_svg/cmd/lc_gotopage.svg

<svg xmlns="http://www.w3.org/2000/svg" viewBox="0 0 24 24">
 <path 
     style="fill:#4d4d4d" 
     d="M 5 3.9980469 L 5 19.998047 L 5 20.001953 L 6 20.001953 L 13 20.003906 L 13 19 L 6 18.998047 L 6 4.9980469 L 14 4.9980469 L 14 7.9980469 L 14 8.9980469 L 18 8.9980469 L 18 13 L 19 13 L 19 9.4082031 L 19 8.0019531 L 19 7.9902344 L 15.007812 3.9980469 L 15 4.0097656 L 15 3.9980469 L 14 3.9980469 L 6 3.9980469 L 5 3.9980469 z "
     />
 <path 
     style="fill:#1d99f3" 
     d="M 16.71875 13 L 16 13.71875 L 18.3125 16 L 13 16 L 13 17 L 18.3125 17 L 16 19.28125 L 16.71875 20 L 20 16.71875 L 20.21875 16.5 L 20 16.28125 L 16.71875 13 z "
     />
 </svg>

<?xml version="1.0" encoding="UTF-8" standalone="no"?>
<!-- Created with Inkscape (http://www.inkscape.org/) -->

<svg
   xmlns:dc="http://purl.org/dc/elements/1.1/"
   xmlns:cc="http://creativecommons.org/ns#"
   xmlns:rdf="http://www.w3.org/1999/02/22-rdf-syntax-ns#"
   xmlns:svg="http://www.w3.org/2000/svg"
   xmlns="http://www.w3.org/2000/svg"
   xmlns:sodipodi="http://sodipodi.sourceforge.net/DTD/sodipodi-0.dtd"
   xmlns:inkscape="http://www.inkscape.org/namespaces/inkscape"
   width="24"
   height="24"
   id="svg2"
   version="1.1"
   inkscape:version="0.91 r13725"
   viewBox="0 0 24 24"
   sodipodi:docname="lc_gotopage.svg">
  <defs
     id="defs4">
    <style
       id="current-color-scheme"
       type="text/css">
      .ColorScheme-Text {
        color:#4d4d4d;
      }
      </style>
  </defs>
  <sodipodi:namedview
     id="base"
     pagecolor="#ffffff"
     bordercolor="#666666"
     borderopacity="1.0"
     inkscape:pageopacity="0.0"
     inkscape:pageshadow="2"
     inkscape:zoom="33.683996"
     inkscape:cx="10.449884"
     inkscape:cy="11.747798"
     inkscape:document-units="px"
     inkscape:current-layer="layer1"
     showgrid="true"
     inkscape:showpageshadow="false"
     borderlayer="true"
     inkscape:window-width="2560"
     inkscape:window-height="1375"
     inkscape:window-x="0"
     inkscape:window-y="36"
     inkscape:window-maximized="1"
     units="px"
     fit-margin-top="0"
     fit-margin-left="0"
     fit-margin-right="0"
     fit-margin-bottom="0"
     inkscape:object-nodes="true"
     showguides="true">
    <inkscape:grid
       type="xygrid"
       id="grid4101"
       originx="1px"
       originy="0.99998262px" />
  </sodipodi:namedview>
  <metadata
     id="metadata7">
    <rdf:RDF>
      <cc:Work
         rdf:about="">
        <dc:format>image/svg+xml</dc:format>
        <dc:type
           rdf:resource="http://purl.org/dc/dcmitype/StillImage" />
        <dc:title />
      </cc:Work>
    </rdf:RDF>
  </metadata>
  <g
     inkscape:label="Capa 1"
     inkscape:groupmode="layer"
     id="layer1"
     transform="translate(1,-1029.3622)">
    <path
       inkscape:connector-curvature="0"
       style="fill:#1d99f3;fill-opacity:1;stroke:none"
       d="M 15.71875,1042.3622 15,1043.081 l 2.3125,2.2812 -5.3125,0 0,1 5.3125,0 -2.3125,2.2813 0.71875,0.7187 L 19,1046.081 19.21875,1045.8622 19,1045.6435 Z"
       id="path4147"
       sodipodi:nodetypes="cccccccccccc" />
    <path
       style="fill:#4d4d4d;fill-opacity:1;stroke:none"
       d="m 5,3.9980469 0,16.0000001 0,0.0039 1,0 7,0.002 0,-1.003906 -7,-0.002 0,-14.0000001 8,0 0,3 0,1 4,0 L 18,13 l 1,0 0,-3.5917969 0,-1.40625 0,-0.011719 L 15.007812,3.9980469 15,4.0097656 l 0,-0.011719 -1,0 -8,0 z"
       transform="translate(-1,1029.3622)"
       id="rect4139"
       inkscape:connector-curvature="0"
       sodipodi:nodetypes="ccccccccccccccccccccccc" />
  </g>
</svg>
